X:1
T:Saunders Bane [sic] (Old Scotch)
M:C
L:1/8
Q:"Allegro"
R:Reel
B:Thomas Wilson - Companion to the Ball Room (1816, p. 55)
Z:AK/Fiddler's Companion
K:Dmin
A|FADA FA DE/F/|GCEG CGEG|FADA FADg|fd f/e/d/^c/ dDD:||
f/g/|adfa dafa|gceg cg ef/g/|adfa dafa|gc a/g/f/e/ fd df/g/|
adfa dafa|gceg cg ef/g/|afge fdcA|G>c A/G/F/E/ FDD||

